src/Assets/Icons/PackagesAndPricesScreen/PricingPlansComponent/tickIcon.svg

<svg width="21" height="20" viewBox="0 0 21 20" fill="none" xmlns="http://www.w3.org/2000/svg">
<path d="M10.3906 0C4.86778 0 0.390625 4.47715 0.390625 10C0.390625 15.5228 4.86778 20 10.3906 20C15.9135 20 20.3906 15.5228 20.3906 10C20.3842 4.47982 15.9108 0.00642897 10.3906 0Z" fill="#DBDDE8"/>
<path d="M16.1648 6.83362L10.4606 14.5745C10.3245 14.7549 10.1217 14.8732 9.89761 14.9027C9.67352 14.9321 9.44699 14.8703 9.26892 14.7311L5.19559 11.4745C4.83614 11.1868 4.77794 10.6622 5.06559 10.3028C5.35324 9.94334 5.87781 9.88514 6.23725 10.1728L9.63392 12.8903L14.8231 5.84778C14.9932 5.59244 15.29 5.45127 15.5954 5.48032C15.9009 5.50936 16.1657 5.70393 16.2847 5.98676C16.4037 6.2696 16.3576 6.59494 16.1648 6.83362Z" fill="#0000FF"/>
</svg>

<svg xmlns="http://www.w3.org/2000/svg" width="21" height="20" fill="none"><path fill="#DBDDE8" d="M10.39 0c-5.522 0-10 4.477-10 10s4.478 10 10 10c5.524 0 10-4.477 10-10-.006-5.52-4.48-9.994-10-10"/><path fill="#00F" d="m16.165 6.834-5.704 7.74a.843.843 0 0 1-1.192.157l-4.073-3.256a.834.834 0 0 1 1.041-1.302l3.397 2.717 5.19-7.042a.833.833 0 1 1 1.34.986"/></svg>
